X: 53
T:Kelly the Boy From Kilken
% Nottingham Music Database
S:via PR
M:4/4
L:1/4
K:G
Bc |:"G"d2 Bd|"C"g2 fe|"G"d2 BG|"C"E2 GA|"G"B2 Bd|"D"dc AF|"G"G4-|1"G"G2 Bc:|2\
"G"G2 dd||
"C"e2 "G"ef|"C"g2 fe|"G"d2 "D"Bc|"G"d2 dd|"C"e2 "G"ef|"C"g2 "A"fe|"A"fg "A7"fe\
|"D"dc Bc|
"G"d2 Bd|"C"g2 fe|"G"d2 BG|"C"E2 GA|"G"B2 Bd|"D"dc AF|"G"G4-|G4||


